svg/white/tpay.svg

<?xml version="1.0" encoding="UTF-8"?>
<svg width="32px" height="32px" viewBox="0 0 32 32" version="1.1" xmlns="http://www.w3.org/2000/svg" xmlns:xlink="http://www.w3.org/1999/xlink">
    <!-- Generator: Sketch 52.4 (67378) - http://www.bohemiancoding.com/sketch -->
    <title>svg/white/tpay</title>
    <desc>Created with Sketch.</desc>
    <g id="white/tpay" stroke="none" stroke-width="1" fill="none" fill-rule="evenodd">
        <path d="M16,32 C7.163444,32 0,24.836556 0,16 C0,7.163444 7.163444,0 16,0 C24.836556,0 32,7.163444 32,16 C32,24.836556 24.836556,32 16,32 Z M15.994936,27.2279265 C9.79661135,27.2279265 4.77186698,22.2034307 4.77186698,16.0049814 C4.77186698,9.80677953 9.79661135,4.78191191 15.994936,4.78191191 C22.1932616,4.78191191 27.2180048,9.80677953 27.2180048,16.0049814 C27.2180048,22.2034307 22.1932616,27.2279265 15.994936,27.2279265 Z M15.994936,4.06699721 C9.41223833,4.06699721 4.05682837,9.42240837 4.05682837,16.0049814 C4.05682837,22.5876781 9.41223926,27.9430884 15.994936,27.9430884 C22.5776337,27.9430884 27.9330439,22.5876781 27.9330439,16.0049814 C27.9330439,9.42240837 22.5776327,4.06699721 15.994936,4.06699721 Z M20.198656,20.2749219 L19.5762681,22.9735879 L19.4254467,23.6268595 L18.7550588,23.6265805 L15.3105937,23.625213 L15.303896,23.625213 L15.2970774,23.624934 C13.9158681,23.6018642 12.8317137,23.2353526 12.1205193,22.5869181 C12.7350932,23.6697088 14.0387825,24.2974298 15.8591862,24.3274456 L15.865763,24.3274456 L15.8727118,24.3274456 L19.3170532,24.328934 L19.9875648,24.329306 L20.1382625,23.6760344 L20.7606495,20.9773684 L20.274696,19.9459265 L20.198656,20.2749219 Z M19.115989,8.70369767 L18.6244541,7.68069023 L18.5540039,8.00118605 L18.0866551,10.1284419 L18.8030588,10.1284419 L19.115989,8.70369767 Z M21.6026746,11.1645209 L20.9822718,13.7896372 L20.8289695,14.4383191 L20.1625509,14.4383191 L17.0963797,14.4383191 L16.1484113,18.7662567 C16.1285658,18.89004 16.1155425,19.0161795 16.1155425,19.0851405 C16.1155425,19.1474037 16.1232355,19.1863498 16.1289379,19.204706 C16.1513881,19.2151247 16.2165044,19.2388149 16.3515741,19.24328 L16.4343025,19.24328 L16.7598839,19.24328 L17.6584886,15.1408307 L20.7244104,15.1408307 L21.390829,15.1408307 L21.5441313,14.4921488 L22.1647825,11.8670326 L21.6815583,10.8308772 L21.6026746,11.1645209 Z M12.3413416,14.4382577 L10.0735593,14.4382577 L9.73979181,14.4382577 L10.6355434,15.1407693 L12.1876672,15.1407693 L12.3413416,14.4382577 Z M16.434242,20.0857237 L16.3393583,20.0857237 C15.6145211,20.0671191 15.2730634,19.6901898 15.2730634,19.0851656 C15.2730634,18.9420344 15.2971258,18.7509023 15.3208151,18.6077712 L16.4186132,13.5960502 L20.1626132,13.5960502 L20.783016,10.9708093 L17.0391407,10.9708093 L17.7312337,7.82042233 L14.6765983,7.82042233 L13.9842569,10.9708093 L10.670149,10.9708093 L10.0735602,13.5960502 L13.3876681,13.5960502 L12.0988625,19.4908716 C12.027296,19.7771349 12.0033583,20.1111507 12.0033583,20.2783442 C12.0033583,21.960453 13.3301183,22.7499098 15.3111416,22.782654 L18.755482,22.7843935 L19.3779937,20.0857265 L17.2416839,20.0857265 L16.434242,20.0857237 Z" id="Combined-Shape" fill="#FFFFFF" fill-rule="nonzero"></path>
    </g>
</svg>

<svg width="32" height="32" viewBox="0 0 32 32" xmlns="http://www.w3.org/2000/svg"><path d="M16 32C7.163 32 0 24.837 0 16S7.163 0 16 0s16 7.163 16 16-7.163 16-16 16zm-.005-4.772c-6.198 0-11.223-5.025-11.223-11.223S9.797 4.782 15.995 4.782s11.223 5.025 11.223 11.223-5.025 11.223-11.223 11.223zm0-23.161c-6.583 0-11.938 5.355-11.938 11.938s5.355 11.938 11.938 11.938 11.938-5.355 11.938-11.938S22.578 4.067 15.995 4.067zm4.204 16.208l-.623 2.699-.15.653h-.67l-3.445-.002h-.014c-1.381-.023-2.465-.39-3.176-1.038.614 1.083 1.918 1.71 3.738 1.74h.014l3.444.002h.67l.151-.653.623-2.699-.486-1.031-.076.329zM19.116 8.704l-.492-1.023-.07.32-.467 2.127h.716l.313-1.424zm2.487 2.46l-.62 2.626-.154.648h-3.733l-.948 4.328c-.02.124-.032.25-.032.32 0 .061.007.1.013.119a.6.6 0 0 0 .223.038h.408l.898-4.102h3.733l.153-.649.62-2.625-.482-1.036-.08.334zm-9.262 3.274H9.74l.896.703h1.552l.153-.703zm4.093 5.648h-.095c-.724-.019-1.066-.396-1.066-1 0-.144.024-.335.048-.478l1.098-5.012h3.744l.62-2.625h-3.744l.692-3.15h-3.054l-.693 3.15H10.67l-.596 2.625h3.314l-1.29 5.895c-.07.286-.095.62-.095.787 0 1.682 1.327 2.472 3.308 2.505l3.444.001.623-2.698h-2.944z" fill="#FFF"/></svg>
